!!!COM: Bach, Johann Sebastian
!!!OTL: Sinfonia No. 5; in E- major; BWV 791
!! Three-part sinfonia
!! Bach-Gesellschaft edition, pp.24-25
!! Performance duration: 2:14; performance tempo: 51.0 quarter-notes per minute.
!! (Andras Schiff, piano, "Two-Part Inventions BWV 772a-786; Three-part
!! Inventions BWV 787-801" Decca 411 974-2)
!! NOTE: The numerous appoggiaturas occuring in this sinfonia have been
!!       expanded in this encoding according to standard performance practice.
**kern	**kern	**kern
*staff2	*staff1	*staff1
*M3/4	*M3/4	*M3/4
*MM51	*MM51	*MM51
*E-:	*E-:	*E-:
=1	=1	=1
16r	2.r	4r
16E-	.	.
16G	.	.
16B-	.	.
4e-	.	8r
.	.	16r
.	.	16b-
4c	.	8.ee-WS
.	.	16ff
=2	=2	=2
16r	4r	{8ee-
16BB-	.	.
16D	.	[8dd}
16F	.	.
4B-	8r	8.dd]
.	16r	.
.	16f	16cc
4G	8.b-WS	8.dd-
.	16cc	16ee-
=3	=3	=3
16r	{8b-	{8dd-
16AA-	.	.
16C	[8a-}	[8cc}
16E-	.	.
4A-	8.a-]	8.cc]
.	16g	16cc
4F	{8g	{8cc
.	16a-}	16ff}
.	16b-	16gg
=4	=4	=4
16r	{8a-	{8ff
16C	.	.
16E-	[8g}	[8ee-}
16G	.	.
4c	8.g]	8.ee-]
.	16g	16dd
4An	8.cc	{8dd
.	.	16ee-}
.	16dd	16ff
=5	=5	=5
16r	{8cc	{8ee-
16BB-	.	.
16D	[8b-}	[8dd}
16F	.	.
4B-	2b-_	8.dd]
.	.	16dd
4E-	.	{8dd
.	.	16gg}
.	.	16gg
=6	=6	=6
16r	4b-]	{8gg
16AA-	.	.
16C	.	[8cc}
16E-	.	.
4A-	[2a-S	8.cc]
.	.	16cc
4D	.	{8cc
.	.	16ff}
.	.	16ff
=7	=7	=7
16r	4a-_	{8ff
16GG	.	.
16BB-	.	8b-}
16D	.	.
4G	8.a-]	[2ee-W
.	16g	.
4A-	{8g	.
.	16cc}	.
.	16cc	.
=8	=8	=8
16r	{8cc	4ee-]
16BB-	.	.
16F	[8f}	.
16A-	.	.
4B-	8.f]	2dd
.	16f	.
4BB-	8.b-WS	.
.	16cc	.
=9	=9	=9
16r	{8a-	{8dd
16EE-	.	.
16GG	[8g}	[8ee-}
16BB-	.	.
4E-	8g_	8.ee-]
.	32g]	.
.	{32gg	.
.	32ee-	16r
.	32bn}	.
4C	8.ccW	4r
.	16cc	.
=10	=10	=10
16r	[2.ccS	4r
16AA-	.	.
16C	.	.
16E-	.	.
4A-	.	8r
.	.	32r
.	.	32aa-
.	.	32ff
.	.	32cc
4F	.	8.ddW
.	.	16dd
=11	=11	=11
16r	4cc]	[4ddS
16F	.	.
16A-	.	.
16c	.	.
4f	{8cc	8.dd]
.	16bn}	.
.	16cc	16ee-
16r	{8cc	{8ee-
16Bn	.	.
16An	[8dd}	[8ff}
16G	.	.
=12	=12	=12
16c	8.dd]	8.ff]
16G	.	.
16A-	.	.
16F	16cc	16ee-
4G	4cc	4ee-S
4GG	4bn	8.ddO
.	.	16cc
=13	=13	=13
16r	4ccW	4ccW
16CC	.	.
16EE-	.	.
16GG	.	.
4C	8r	4r
.	16r	.
.	16g	.
4EE-	8.ccWS	4r
.	16dd	.
=14	=14	=14
16r	{8b-	4r
16FF	.	.
16AAn	[8an}	.
16C	.	.
4F	8.a]	8r
.	.	16r
.	16b-	16cc
4AA-	[4cc	8.ffWS
.	.	16gg
=15	=15	=15
16r	4cc]	{8ee-
16BB-	.	.
16D	.	[8dd}
16F	.	.
4B-	8.b-	8.dd]
.	16cc	16ee-
4G	{8cc	{8ee-
.	16dd}	16ff}
.	16ee-	16gg
=16	=16	=16
16r	{8dd	{8ff
16G	.	.
16An	16cc}	16ee-}
16B-	16b-	16dd
4F	4b-	4ddS
4FF	4an	8.ccO
.	.	16b-
=17	=17	=17
16r	4b-W	4b-W
16BB-	.	.
16D	.	.
16F	.	.
4B-	4r	8r
.	.	16r
.	.	16bb-
4D	4r	8.aa-O
.	.	16bb-
=18	=18	=18
16r	4r	{8aa-
16E-	.	.
16G	.	[8gg}
16B-	.	.
4e-	8r	8.gg]
.	16r	.
.	16ee-	16aa-
4G	8.dd-O	[4bb-
.	16ee-	.
=19	=19	=19
16r	{8dd-	8.bb-]
16AA-	.	.
16C	[8cc}	.
16E-	.	16gg
4A-	8.cc]	{8ff
.	.	16een}
.	16dd-	16ff
4En	{8cc	[4gg
.	16b-}	.
.	16cc	.
=20	=20	=20
16r	{8b-	8.gg]
16FF	.	.
16AA-	[8a-}	.
16C	.	16ff
4F	8.a-]	{8ee-
.	.	16dd-}
.	16g	16cc
4D-	{8g	{8cc
.	16a-}	16ff}
.	16b-	16gg
=21	=21	=21
16r	[4cc	{8ff
16C	.	.
16En	.	[8een}
16G	.	.
4c	8.cc]	8.ee]
.	16cc	16ee
4A-	8.ff	8.aa-
.	16ee-	16aa-
=22	=22	=22
16r	[2.dd-S	{4aa-
16BB-	.	.
16D-	.	.
16F	.	.
4B-	.	[8gg
.	.	32gg}]
.	.	32ff
.	.	32een
.	.	32ff
4G	.	{8ff
.	.	16bb-}
.	.	16bb-
=23	=23	=23
16r	4dd-]	{4bb-
16CC	.	.
16EEn	.	.
16GG	.	.
4C	8.cc	8.eenO}
.	16b-	16ee
4D-	{8b-	{8ee
.	16a-}	16ff}
.	16g	16ee
=24	=24	=24
16r	{8g	{8een
16D-	.	.
16C	16a-}	16ff}
16BB-	16b-	16gg
4C	4a-	{4ff
4CC	8.g	8.eenO}
.	16a-	16ff
=25	=25	=25
16r	[4a-W	4ff
16FF	.	.
16AA-	.	.
16C	.	.
4F	8.a-]	4r
.	16cc	.
4AA-	{16cc	4r
.	[16ff}	.
.	32ff]	.
.	{32ee-	.
.	32dd-	.
.	32cc}	.
=26	=26	=26
16r	{8cc	4r
16BB-	.	.
16D-	[8dd-}	.
16F	.	.
4B-	2dd-_	8r
.	.	16r
.	.	16ff
4D-	.	[8bb-
.	.	32bb-]
.	.	{32aa-
.	.	32gg
.	.	32ff}
=27	=27	=27
16r	4dd-_	{8ff
16E-	.	.
16G	.	[8gg}
16B-	.	.
4e-	8.dd-]	8.gg]
.	16cc	16aa-
16r	[4b-	{8ee-
16G	.	.
16F	.	[8dd-}
16E-	.	.
=28	=28	=28
16A-	8.b-]	8.dd-]
16E-	.	.
16F	.	.
16D-	16a-	16cc
4E-	{4a-	{4cc
4EE-	4g}	8.b-O}
.	.	16a-
=29	=29	=29
16r	4a-	[4a-
16AA-	.	.
16C	.	.
16E-	.	.
4A-	4r	8.a-]
.	.	16e-
4F	4r	8.a-WS
.	.	16b-
=30	=30	=30
16r	4r	{8a-
16EE-	.	.
16GG	.	[8g}
16BB-	.	.
4E-	8r	8.g]
.	16r	.
.	16B-	16f
4C	8.e-WS	8.g
.	16f	16a-
=31	=31	=31
16r	{8e-	[4b-
16BB-	.	.
16D	[8d}	.
16F	.	.
4B-	8.d]	8.b-]
.	16c	16f
4G	{8c	{8f
.	16d-}	16b-}
.	16e-	16cc
=32	=32	=32
16r	{8d-	{8b-
16AA-	.	.
16C	[8c}	[8a-}
16E-	.	.
4A-	8.c]	8.a-]
.	16c	16g
4F	{8c	{8g
.	16f}	16a-}
.	16g	16b-
=33	=33	=33
16r	{8f	{8a-
16C	.	.
16E-	[8e-}	[8g}
16G	.	.
4c	8.e-]	8.g]
.	16d	16g
4An	{8d	8.cc
.	16e-}	.
.	16f	16cc
=34	=34	=34
16r	{8e-	4cc
16BB-	.	.
16D	[8d}	.
16F	.	.
4B-	8.d]	[2b-S
.	16d	.
4E-	8.gW	.
.	16g	.
=35	=35	=35
16r	{8g	4b-]
16AA-	.	.
16C	[8c}	.
16E-	.	.
4A-	8c_	[2a-S
.	32c]	.
.	32c	.
.	32d	.
.	32e-	.
4D	8.fW	.
.	16f	.
=36	=36	=36
16r	{8f	4a-_
16GG	.	.
16BB-	8B-}	.
16D	.	.
4G	[2e-	8a-_
.	.	32a-]
.	.	32g
.	.	32a-
.	.	32b-
4A-	.	8.ccM
.	.	16cc
=37	=37	=37
16r	4e-]	{8cc
16BB-	.	.
16F	.	[8f}
16A-	.	.
4B-	{8e-	8.f]
.	[8d}	.
.	.	16f
4BB-	4d]	8.b-WS
.	.	16cc
=38	=38	=38
2.EE-;	2.e-;	2.g;
====	====	====
*-	*-	*-
